src/icons/RockRMS.svg

<svg width="59" height="61" viewBox="0 0 59 61" xmlns="http://www.w3.org/2000/svg"><title>rock-logo</title><path d="M57.705 60.063L41.387 40.936s11.83-.026 11.928-.028a5.456 5.456 0 0 0 3.736-1.259 5.504 5.504 0 0 0 .693-7.752L32.396 2.151a5.562 5.562 0 0 0-.836-.891c-.039-.029-.084-.051-.121-.082-.012-.01-.027-.018-.039-.025a5.887 5.887 0 0 0-.867-.563c-.018-.009-.039-.014-.059-.021a5.377 5.377 0 0 0-.922-.366c-.057-.013-.119-.025-.178-.039-.277-.063-.557-.129-.84-.15-.172-.021-.346-.008-.516-.008-.172 0-.34-.014-.514.008-.281.021-.559.087-.84.15l-.174.039a5.18 5.18 0 0 0-.924.366c-.021.009-.039.014-.057.021a5.204 5.204 0 0 0-.869.563c-.018.009-.025.017-.037.025-.039.031-.084.053-.123.082-.32.271-.594.57-.84.885L0 29.86h14.461l13.557-15.891 13.604 15.967-12.104.008c-.045 0-.088.013-.133.017-.287 0-.578.026-.865.071a7.39 7.39 0 0 0-.244.054 5 5 0 0 0-.775.229 2 2 0 0 0-.266.117 4.44 4.44 0 0 0-.957.549c-.117.081-.238.143-.346.229-.076.067-.137.147-.211.221a4.613 4.613 0 0 0-.258.264 5.523 5.523 0 0 0-.453.531c-.068.105-.131.205-.195.308a5.154 5.154 0 0 0-.332.601c-.059.126-.107.255-.156.384-.072.199-.145.398-.191.605a4.218 4.218 0 0 0-.084.451 5.182 5.182 0 0 0-.07.606c-.006.074-.023.137-.023.209 0 .101.023.189.027.294.012.188.023.368.051.557a5.735 5.735 0 0 0 .246 1.012c.072.199.154.397.248.588.061.119.119.234.188.35.123.215.26.414.408.605.045.057.068.115.115.168l18.004 21.104h14.459v-.005z" fill="#EE7624" fill-rule="evenodd"/></svg>

<?xml version="1.0" encoding="UTF-8" standalone="no"?>
<svg width="59px" height="61px" viewBox="0 0 59 61" version="1.1" xmlns="http://www.w3.org/2000/svg" xmlns:xlink="http://www.w3.org/1999/xlink">
    <!-- Generator: Sketch 40.2 (33826) - http://www.bohemiancoding.com/sketch -->
    <title>rock-logo</title>
    <desc>Created with Sketch.</desc>
    <defs></defs>
    <g id="Page-1" stroke="none" stroke-width="1" fill="none" fill-rule="evenodd">
        <g id="rock-logo" fill="#EE7624">
            <path d="M57.705,60.063 L41.387,40.936 C41.387,40.936 53.217,40.91 53.315,40.908 C54.628,40.959 55.969,40.557 57.051,39.649 C59.381,37.701 59.694,34.235 57.744,31.897 L32.396,2.151 C32.154,1.832 31.88,1.531 31.56,1.26 C31.521,1.231 31.476,1.209 31.439,1.178 C31.427,1.168 31.412,1.16 31.4,1.153 C31.121,0.937 30.834,0.748 30.533,0.59 C30.515,0.581 30.494,0.576 30.474,0.569 C30.173,0.418 29.865,0.293 29.552,0.203 C29.495,0.19 29.433,0.178 29.374,0.164 C29.097,0.101 28.817,0.035 28.534,0.014 C28.362,-0.007 28.188,0.006 28.018,0.006 C27.846,0.006 27.678,-0.008 27.504,0.014 C27.223,0.035 26.945,0.101 26.664,0.164 C26.605,0.178 26.549,0.19 26.49,0.203 C26.172,0.293 25.865,0.418 25.566,0.569 C25.545,0.578 25.527,0.583 25.509,0.59 C25.204,0.746 24.911,0.937 24.64,1.153 C24.622,1.162 24.615,1.17 24.603,1.178 C24.564,1.209 24.519,1.231 24.48,1.26 C24.16,1.531 23.886,1.83 23.64,2.145 L0,29.86 L14.461,29.86 L28.018,13.969 L41.622,29.936 L29.518,29.944 C29.473,29.944 29.43,29.957 29.385,29.961 C29.098,29.961 28.807,29.987 28.52,30.032 C28.438,30.049 28.354,30.067 28.276,30.086 C28.016,30.139 27.756,30.218 27.501,30.315 C27.407,30.349 27.319,30.387 27.235,30.432 C27.003,30.53 26.78,30.645 26.563,30.784 C26.467,30.846 26.37,30.915 26.278,30.981 C26.161,31.062 26.04,31.124 25.932,31.21 C25.856,31.277 25.795,31.357 25.721,31.431 C25.633,31.513 25.547,31.603 25.463,31.695 C25.297,31.866 25.145,32.046 25.01,32.226 C24.942,32.331 24.879,32.431 24.815,32.534 C24.688,32.732 24.579,32.93 24.483,33.135 C24.424,33.261 24.376,33.39 24.327,33.519 C24.255,33.718 24.182,33.917 24.136,34.124 C24.099,34.269 24.073,34.425 24.052,34.575 C24.017,34.777 23.993,34.978 23.982,35.181 C23.976,35.255 23.959,35.318 23.959,35.39 C23.959,35.491 23.982,35.579 23.986,35.684 C23.998,35.872 24.009,36.052 24.037,36.241 C24.062,36.429 24.105,36.613 24.148,36.796 C24.187,36.95 24.23,37.097 24.283,37.253 C24.355,37.452 24.437,37.65 24.531,37.841 C24.592,37.96 24.65,38.075 24.719,38.191 C24.842,38.406 24.979,38.605 25.127,38.796 C25.172,38.853 25.195,38.911 25.242,38.964 L43.246,60.068 L57.705,60.068 L57.705,60.063 L57.705,60.063 Z" id="Shape"></path>
        </g>
    </g>
</svg>
